X:1
T:Planxty Sweeney
T:Planxty Sweeney
T:Carolan
C:Carolan
L:1/8
M:6/8
K:G
V:1 treble 
V:1
 G |{F} E>DE G2 D |{F} E>DE G2 B |{B} dcB{B} AGA | BAA ABG |{F} E>DE G2 D |{F} E>DE G2 B | %7
 d>cB{B} AGA | BGG G2 :: G | GAB c2 c | Bdc c | BAG | A>BA ABc | dcB{B} A2 G |{F} EDE G2 D | %16
{F} EDE G<!fermata!ge/ |{e} dcB{B} AGA | BGG G2 :| %19

